X: 38843
T: Sun And Wind
R: slip jig
M: 9/8
K: Dminor
|:~D3 DEF GFE|D2A d2e f2e|dcA DEF GFE|C2G GFG ~C3|
~D3 DEF GFE|D2A d2e f2g|afc gec fdB|AcA GFE D3:|
|:~a3 aga c'af|efe c'af edc|~d3 edc dcA|cAF FAc d2e|
f3 fef c'af|efe c'af edc|~d3 edc dcA|AcA GFE D2g:|

